!!!OTL: Ye Gods! Was Strephon's Picture Blest 
!!!id: HA043
**kern
*clefF4
*k[f#c#]
*D:
*M4/4
{8d
8e
=1
4.f#
8dd
16a
8.f#
8e
8d
=2
4f#
8.a
16b
4a}
{8.e
16f#
=3
4.g
16a
16b
8a
8f#
8e
8d
=4
4f#
8.e
16f#
4e}
{8d
8e
=5
4.f#
8dd
16a
8.f#
8e
8d
=6
4f#
8.dd
16ee
4dd}
{8f#
8g
=7
8a
8b
8a
8f#
8g
8f#
8e
8d
=8
4B
8.d
16e
4d}
{8a
8b
=9
8dd
8ee
8ff#
8ee
8dd
8b
8a
8f#
=10
4a
8.dd
16ee
4dd}
{8.e
16f#
=11
4.g
16a
16b
8a
8f#
8e
8d
=12
4f#
8e
8f#
4e}
{8d
8e
=13
8f#
8d
8f#
8d
8B
8d
8e
8f#
=14
8g
8f#
8g
8a
8b
8a}
{8b
8cc#
=15
8dd
8cc#
8dd
8ee
8ff#
8ee
8ff#
8a
=16
4b
8.dd
16ee
4dd}
==
*-
!!!minrhy: 16
!!!meter: 4/4 
!!!cut: Ye Gods! Was Strephon's Picture Blest 
!!!key: HA043  16  D 4/4 
!!!bem: Vorschlge; Triller
!!!fog: a--b--av-c--cw-bv-d--cw-
!! Haydn: Volksliedbearbeitungen, Bd1
